X:12088
T:Nottingham Castle. HSJJ.032
M:2/4
L:1/16
Q:110
S:HSJ Jackson,Wyresdale,Lancs.1823
R:Misc.
O:England
A:Lancashire
H:1823
Z:vmp.Chris Partington.
K:G
"*"gfga b2g2|dedc B2AG|G2G2 AGAB|c2B2B2A2|!
gfga b2g2|dedc B2AG|D2G2 Bedc|B2G2G4:|!
|:B2AG c2c2|B2AG A2D2|g2g2 fafd|egec d2D2|!
BdBG c2c2|BdBG A2D2|g2g2 fafd|egec d4:|]
%MS has first four notes as quavers.CGP.
